src/static/logos/invision.svg

<?xml version="1.0" encoding="UTF-8" standalone="no"?>
<svg width="256px" height="256px" viewBox="0 0 256 256" version="1.1" xmlns="http://www.w3.org/2000/svg" xmlns:xlink="http://www.w3.org/1999/xlink" preserveAspectRatio="xMidYMid">
	<g>
		<path d="M232.793212,0 L23.2067879,0 C10.390303,0 0,10.390303 0,23.2067879 L0,232.793212 C0,245.609697 10.390303,256 23.2067879,256 L232.793212,256 C245.609697,256 256,245.609697 256,232.793212 L256,23.2067879 C256,10.390303 245.609697,0 232.793212,0" fill="#DC395F"></path>
		<path d="M85.5553939,80.5449697 C94.0654545,80.5449697 101.193697,73.8744242 101.193697,65.1326061 C101.193697,56.3966061 94.0654545,49.728 85.5553939,49.728 C77.0453333,49.728 69.9180606,56.3966061 69.9180606,65.1326061 C69.9180606,73.8744242 77.0453333,80.5449697 85.5553939,80.5449697" fill="#FFFFFF"></path>
		<path d="M53.1287273,163.065212 C52.2104242,166.97503 51.7488485,171.197091 51.7488485,174.641455 C51.7488485,188.212364 59.1078788,197.221818 74.7471515,197.221818 C87.7178182,197.221818 98.2322424,189.518545 105.802667,177.082182 L101.180121,195.635394 L126.935273,195.635394 L141.655273,136.596364 C145.334303,121.647515 152.463515,113.88897 163.273697,113.88897 C171.782788,113.88897 177.072485,119.180606 177.072485,127.916606 C177.072485,130.448485 176.841697,133.205333 175.922424,136.195879 L168.331636,163.332848 C167.181576,167.242667 166.723879,171.155394 166.723879,174.831515 C166.723879,187.714909 174.310788,197.138424 190.179879,197.138424 C203.748848,197.138424 214.557091,188.403394 220.537212,167.474424 L210.419394,163.567515 C205.358545,177.589333 200.989091,180.124121 197.539879,180.124121 C194.089697,180.124121 192.249212,177.825939 192.249212,173.228606 C192.249212,171.159273 192.710788,168.862061 193.399273,166.096485 L200.760242,139.657697 C202.598788,133.449697 203.290182,127.944727 203.290182,122.886788 C203.290182,103.108848 191.329939,92.7873939 176.841697,92.7873939 C163.273697,92.7873939 149.473939,105.025939 142.576485,117.906424 L147.634424,94.7869091 L108.309333,94.7869091 L102.788848,115.150545 L121.187879,115.150545 L109.858909,160.51103 C100.96097,180.28897 84.617697,180.609939 82.5667879,180.150303 C79.1990303,179.39103 77.0453333,178.112 77.0453333,173.735758 C77.0453333,171.210667 77.5049697,167.584 78.6550303,163.210667 L95.9049697,94.7869091 L52.2104242,94.7869091 L46.6899394,115.150545 L64.8572121,115.150545 L53.1287273,163.065212" fill="#FFFFFF"></path>
	</g>
</svg>

<svg width="256" height="256" xmlns="http://www.w3.org/2000/svg" preserveAspectRatio="xMidYMid"><path d="M232.793 0H23.207C10.39 0 0 10.39 0 23.207v209.586C0 245.61 10.39 256 23.207 256h209.586C245.61 256 256 245.61 256 232.793V23.207C256 10.39 245.61 0 232.793 0" fill="#DC395F"/><path d="M85.555 80.545c8.51 0 15.639-6.67 15.639-15.412 0-8.736-7.129-15.405-15.639-15.405s-15.637 6.669-15.637 15.405c0 8.741 7.127 15.412 15.637 15.412m-32.426 82.52c-.919 3.91-1.38 8.132-1.38 11.576 0 13.571 7.359 22.58 22.998 22.58 12.97 0 23.485-7.702 31.056-20.139l-4.623 18.553h25.755l14.72-59.039c3.68-14.948 10.809-22.707 21.619-22.707 8.509 0 13.798 5.292 13.798 14.028 0 2.531-.23 5.288-1.15 8.279l-7.59 27.137c-1.15 3.91-1.608 7.822-1.608 11.499 0 12.883 7.587 22.306 23.456 22.306 13.569 0 24.377-8.735 30.357-29.664l-10.118-3.906c-5.06 14.021-9.43 16.556-12.88 16.556-3.45 0-5.29-2.298-5.29-6.895 0-2.07.462-4.367 1.15-7.133l7.361-26.438c1.839-6.208 2.53-11.713 2.53-16.771 0-19.778-11.96-30.1-26.448-30.1-13.568 0-27.368 12.239-34.266 25.12l5.058-23.12H108.31l-5.52 20.364h18.399l-11.33 45.36c-8.897 19.778-25.24 20.099-27.291 19.64-3.368-.76-5.522-2.039-5.522-6.415 0-2.525.46-6.152 1.61-10.525l17.25-68.424H52.21l-5.52 20.364h18.167L53.13 163.065" fill="#FFF"/></svg>
